woocommerce/payment-gateway/assets/images/card-cc-plain.svg

<svg width="56" height="56" viewBox="0 0 56 56" fill="none" xmlns="http://www.w3.org/2000/svg">
<g clip-path="url(#clip0)">
<path d="M49 8.16667H7C5.14348 8.16667 3.36301 8.90417 2.05025 10.2169C0.737498 11.5297 0 13.3102 0 15.1667L0 40.8333C0 42.6899 0.737498 44.4703 2.05025 45.7831C3.36301 47.0958 5.14348 47.8333 7 47.8333H49C50.8565 47.8333 52.637 47.0958 53.9497 45.7831C55.2625 44.4703 56 42.6899 56 40.8333V15.1667C56 13.3102 55.2625 11.5297 53.9497 10.2169C52.637 8.90417 50.8565 8.16667 49 8.16667ZM7 12.8333H49C49.6188 12.8333 50.2123 13.0792 50.6499 13.5168C51.0875 13.9543 51.3333 14.5478 51.3333 15.1667V17.5C51.3333 17.8094 51.2104 18.1062 50.9916 18.325C50.7728 18.5438 50.4761 18.6667 50.1667 18.6667H5.83333C5.52391 18.6667 5.22717 18.5438 5.00838 18.325C4.78958 18.1062 4.66667 17.8094 4.66667 17.5V15.1667C4.66667 14.5478 4.9125 13.9543 5.35008 13.5168C5.78767 13.0792 6.38116 12.8333 7 12.8333V12.8333ZM49 43.1667H7C6.38116 43.1667 5.78767 42.9208 5.35008 42.4833C4.9125 42.0457 4.66667 41.4522 4.66667 40.8333V26.8333C4.66667 26.5239 4.78958 26.2272 5.00838 26.0084C5.22717 25.7896 5.52391 25.6667 5.83333 25.6667H50.1667C50.4761 25.6667 50.7728 25.7896 50.9916 26.0084C51.2104 26.2272 51.3333 26.5239 51.3333 26.8333V40.8333C51.3333 41.4522 51.0875 42.0457 50.6499 42.4833C50.2123 42.9208 49.6188 43.1667 49 43.1667Z" fill="#485F6F"/>
<path d="M18.6673 33.8333H11.6673C11.0485 33.8333 10.455 34.0792 10.0174 34.5167C9.57982 34.9543 9.33398 35.5478 9.33398 36.1667C9.33398 36.7855 9.57982 37.379 10.0174 37.8166C10.455 38.2542 11.0485 38.5 11.6673 38.5H18.6673C19.2862 38.5 19.8796 38.2542 20.3172 37.8166C20.7548 37.379 21.0007 36.7855 21.0007 36.1667C21.0007 35.5478 20.7548 34.9543 20.3172 34.5167C19.8796 34.0792 19.2862 33.8333 18.6673 33.8333V33.8333Z" fill="#485F6F"/>
</g>
<defs>
<clipPath id="clip0">
<rect width="56" height="56" fill="white"/>
</clipPath>
</defs>
</svg>

<svg width="56" height="56" fill="none" xmlns="http://www.w3.org/2000/svg"><g clip-path="url(#clip0)" fill="#485F6F"><path d="M49 8.167H7a7 7 0 00-7 7v25.666a7 7 0 007 7h42a7 7 0 007-7V15.167a7 7 0 00-7-7zM7 12.833h42a2.333 2.333 0 012.333 2.334V17.5a1.167 1.167 0 01-1.166 1.167H5.833A1.167 1.167 0 014.667 17.5v-2.333A2.333 2.333 0 017 12.833zm42 30.334H7a2.334 2.334 0 01-2.333-2.334v-14a1.167 1.167 0 011.166-1.166h44.334a1.167 1.167 0 011.166 1.166v14A2.333 2.333 0 0149 43.167z"/><path d="M18.667 33.833h-7a2.334 2.334 0 000 4.667h7a2.333 2.333 0 100-4.667z"/></g><defs><clipPath id="clip0"><path fill="#fff" d="M0 0h56v56H0z"/></clipPath></defs></svg>
